icons/svg/icons8/leaf2.svg

<svg width="26" height="26" viewBox="0 0 26 26" fill="none" xmlns="http://www.w3.org/2000/svg">
<g clip-path="url(#clip0)">
<path d="M11.1662 8.82201C10.2632 8.80301 8.3712 8.89701 7.6912 10.71C7.0112 12.523 9.5802 13.504 9.5042 15.091C9.4372 16.508 7.7352 15.408 6.8602 16.526C4.6712 19.32 8.6242 20.382 7.3132 21.51C1.5632 25.51 1.3192 23.875 0.569198 24.125C-0.443802 24.463 -0.0558022 26 1.3192 25.875C3.3192 25.5 7.8202 22.5 9.0702 21.5C10.2082 20.59 15.6952 16.25 18.9452 8.25001C16.5702 17.25 10.7992 21.819 9.9572 22.567C11.8452 23.775 13.3842 23.446 14.6062 22.885C15.9632 22.263 16.0402 21.037 16.5852 20.396C17.8692 18.886 19.8862 20.811 21.5122 18.489C23.0982 16.223 21.1662 15.23 22.0162 13.438C22.6962 12.003 24.7592 12.975 25.5142 10.483C26.1102 8.51701 24.2522 7.53401 23.7132 6.59301C23.4812 6.18901 23.5822 5.30801 23.9962 4.33001C24.5192 3.09001 24.3732 1.37401 23.2482 0.624009C21.9162 -0.263991 19.6992 0.119009 18.9042 1.44501C18.5812 1.98401 17.8552 3.05201 17.2632 3.31101C16.1592 3.79301 14.4352 1.27501 12.0592 3.53801C10.0892 5.41801 12.7502 8.85401 11.1662 8.82201Z" fill="#333333"/>
</g>
<defs>
<clipPath id="clip0">
<rect width="26" height="26" fill="white"/>
</clipPath>
</defs>
</svg>

<?xml version="1.0" encoding="utf-8"?>
<!-- Generator: Adobe Illustrator 15.0.0, SVG Export Plug-In . SVG Version: 6.00 Build 0)  -->
<!DOCTYPE svg PUBLIC "-//W3C//DTD SVG 1.1//EN" "http://www.w3.org/Graphics/SVG/1.1/DTD/svg11.dtd">
<svg version="1.1" id="Layer_1" xmlns="http://www.w3.org/2000/svg" xmlns:xlink="http://www.w3.org/1999/xlink" x="0px" y="0px"
	 width="26px" height="26px" viewBox="0 0 26 26" enable-background="new 0 0 26 26" xml:space="preserve">
<rect fill="none" width="26" height="26"/>
<path fill="#333333" d="M11.166,8.822c-0.903-0.019-2.795,0.075-3.475,1.888s1.889,2.794,1.813,4.381
	c-0.067,1.417-1.769,0.317-2.644,1.435c-2.189,2.794,1.764,3.856,0.453,4.984c-5.75,4-5.994,2.365-6.744,2.615
	c-1.013,0.338-0.625,1.875,0.75,1.75c2-0.375,6.501-3.375,7.751-4.375c1.138-0.91,6.625-5.25,9.875-13.25
	c-2.375,9-8.146,13.569-8.988,14.317c1.888,1.208,3.427,0.879,4.649,0.318c1.357-0.622,1.434-1.848,1.979-2.489
	c1.284-1.51,3.301,0.415,4.927-1.907c1.586-2.266-0.346-3.259,0.504-5.051c0.68-1.435,2.743-0.463,3.498-2.955
	c0.596-1.966-1.262-2.949-1.801-3.89c-0.232-0.404-0.131-1.285,0.283-2.263c0.523-1.24,0.377-2.956-0.748-3.706
	c-1.332-0.888-3.549-0.505-4.344,0.821c-0.323,0.539-1.049,1.607-1.641,1.866c-1.104,0.482-2.828-2.036-5.204,0.227
	C10.089,5.418,12.75,8.854,11.166,8.822z"/>
</svg>
